**kern	**kern
*staff2	*staff1
*clefF4	*clefG2
*k[]	*k[]
*M3/4	*M3/4
*C:	*C:
=-	=-
4r	16ccLL
.	16g
.	16cc
.	16ddJJ
*clefG2	*
(4..c	16eeLL
.	16dd
.	16cc
.	16bJJ
.	16ccLL
.	16g
.	16ee
16e)	16ccJJ
=106	=106
(4d	16bLL
.	16a
.	16b
.	16ccJJ
4..G	16ddLL
.	16cc
.	16b
.	16aJJ
.	16gLL
.	16a
.	16b
16d)	16gJJ
=107	=107
4e	16cc#LL
.	16b-
.	16cc#
.	16eeJJ
(4..e	16ggLL
.	16ee
.	16bb-
.	16ggJJ
.	16bb-LL
.	16gg
.	16ee
16g)	16cc#JJ
=108	=108
4e	16bb-LL
.	16gg
.	16ee
.	16cc#JJ
4..f	16aaLL
.	16ff
.	16dd
.	16aJJ
.	16aaLL
.	16dd
.	16bb
16f	16ddJJ
=109	=109
4f#	16cccLL
.	16aa
.	16ff#
.	16dd#JJ
4..f#	16bbLL
.	16aa
.	16ff#
.	16dd#JJ
.	16bbLL
.	16aa
.	16ff#
16f#	16dd#JJ
=110	=110
4g	16bbLL
.	16ee
.	16bb-
.	16ddJJ
[2a	16cc#LL
.	16ee
.	16ff
.	16ggJJ
.	16aaLL
.	16cc#
.	16dd
.	16eeJJ
=111	=111
8.aL]	16ffLL
.	16gg
.	16aa
16aJk	16ffJJ
(4f	16eeLL
.	16dd
.	16ff
.	16aJJ
4g	16ccLL
.	16b
.	16dd
.	16bJJ
=112	=112
4c)	16ccLL
.	16g
.	16a
.	16gJJ
4r	16aLL
.	16g
.	16a
.	16bJJ
4r	16ccLL
.	16g 16b
.	16a 16cc
.	16bJJ 16dd
*clefF4	*
=113||	=113||
*-	*-
